#
# spiral-star.logo
#
# Draws a spiralling star rotating through a spectrum of random colours
#

clear()
home()
turtle hide

r1 = Math.random() * 30
r2 = Math.random() * 30
r3 = Math.random() * 30

right 18

for n in [1..100]
  color "rgb(#{(n * r1) % 255}, #{(100 + (n * r2)) % 255}, #{(200 + (n * r3)) % 255})"
  forward n * 6
  right 144
